front/public/static/landing/logos/gray/laurel.svg

<svg fill="none" height="300" viewBox="0 0 600 300" width="600" xmlns="http://www.w3.org/2000/svg" xmlns:xlink="http://www.w3.org/1999/xlink"><clipPath id="a"><path d="m129.181 101h341.25v97h-341.25z"/></clipPath><g clip-path="url(#a)" fill="#364153"><path d="m133.556 148.917v48h8 8v-48-48h-8-8z"/><path d="m450.556 148.917v48h7.833 7.833v-48-48h-7.833-7.833z"/><path d="m404.055 125.283c-11.733 1.567-21.133 8.3-26.333 18.8-3.3 6.634-4.533 13.7-3.833 21.834.7 8.466 2.9 14.1 7.833 20.266 6.067 7.534 15.2 11.734 25.5 11.734 5.933 0 12.333-1.667 16.867-4.367 4.933-2.933 9.433-8.567 11.833-14.767 1-2.6 2.133-7.133 1.867-7.433-.1-.067-.9.9-1.834 2.167-3.033 4.066-6.433 6.866-10.833 8.9-4.233 1.966-6.1 2.3-12.233 2.3-5.067 0-5.734-.1-8.2-.9-6.6-2.167-12.167-7.7-14.267-14.167-1.167-3.567-1.567-5.833-1.8-10.267l-.233-3.8h24.3 24.3l-.234-2.9c-1.1-14.433-8-23.466-20.3-26.6-3.6-.9-9-1.266-12.4-.8zm7.5 7c6.334 1.034 10.3 6.434 10.734 14.634l.1 2.166h-16.234c-8.9 0-16.333-.133-16.466-.266-.434-.434.466-3.167 2.1-6.567 3.833-7.967 10.766-11.433 19.766-9.967z"/><path d="m192.389 125.75c-9.034 1.667-16.434 5.133-21.034 9.8-2.7 2.767-3.733 4.667-4.166 7.933-.467 3.167-.067 4.9 1.433 6.634 1.3 1.466 2.333 2 4.467 2.3 4.7.633 8.3-2.334 12.2-9.967 2.1-4.1 5.266-7.5 8.6-9.233 2.066-1.067 2.333-1.134 5.5-1.067 7.333.067 10.966 3.2 11.866 10.1.467 3.4.1 5.1-1.4 6.833-1.3 1.467-2.966 2.067-13.133 4.7-4.567 1.2-9.9 2.7-11.8 3.334-8.7 2.9-14.967 7.333-17.5 12.466-1.6 3.167-2 4.967-2 9 .033 6.334 1.333 9.834 4.967 13.534 4.633 4.7 12.433 6.733 20.4 5.333 9.066-1.567 14.833-6.4 18.633-15.567.667-1.633 1.333-2.966 1.467-2.966.5 0 .666 2.666.666 10.233v7.767h7.534 7.533l-.167-26.934c-.133-22.7-.233-27.233-.666-29.1-1.667-7.166-7.267-12.8-14.734-14.833-2.866-.8-14.966-.967-18.666-.3zm18.766 39.167c-.133 7.466-.166 7.933-1 10.3-1.733 4.766-4.8 8.266-9.1 10.4-6.1 3-13.6 2.3-17.2-1.6-2.266-2.467-2.8-4-2.8-8.267 0-3.333.1-3.867.967-5.733 1.2-2.634 3.8-5.134 6.633-6.434 1.167-.533 4.934-1.8 8.4-2.833 8.167-2.433 11.1-3.6 12.7-4.967l1.3-1.133.1 1.233c.067.667.067 4.734 0 9.034z"/><path d="m353.589 125.75c-7.2 1.333-12.3 6.533-15.2 15.5-.5 1.567-1 2.967-1.1 3.167-.466.8-.666-1.9-.7-9.634l-.033-8.266-9.8.1c-5.4.066-9.9.233-10.033.333-.1.133.4 1.033 1.133 2 1.867 2.5 2.7 4.9 3.067 8.8.133 1.833.266 15.9.3 31.233v27.934h7.633 7.667l.1-22.267c.133-20.333.166-22.4.733-24.067 1.667-5.066 5-9.366 8.733-11.2 1.7-.833 2.334-.966 4.834-.966 2.666 0 2.966.066 4.666 1.133 3.467 2.2 5.234 3.033 7.134 3.4 4.066.733 7.266-1.1 8.333-4.833.9-3.067-.1-6.1-2.8-8.667-3.6-3.333-9.1-4.733-14.667-3.7z"/><path d="m237.755 126.883-1.333.2 1.033 1.167c1.5 1.733 2.634 4.233 3.234 7.1.433 2.1.533 5.133.533 17.133 0 23.267.467 27.7 3.367 33.7 1.033 2.167 1.933 3.4 3.9 5.4 4.366 4.4 9.4 6.3 16.566 6.3 10.5 0 17.334-4.466 21.034-13.833.7-1.733 1.366-3.133 1.533-3.133.133 0 .267 3.6.267 8v8h7.833 7.833v-35.167-35.167l-8.9.034c-4.933 0-9.5.1-10.166.233l-1.2.233 1.466 1.934c.9 1.233 1.734 2.866 2.2 4.333.767 2.367.767 2.567.767 22.567 0 20.133 0 20.166-.733 22-2.034 4.933-5.567 7.366-11.667 8.066-10.667 1.167-17.3-3.2-18.133-11.9-.134-1.466-.267-12.766-.267-25.1l-.033-22.4-8.9.034c-4.934.033-9.534.166-10.234.266z"/></g></svg>

<svg width="600" height="300" viewBox="0 0 600 300" fill="none" xmlns="http://www.w3.org/2000/svg">
<g clip-path="url(#clip0_2209_20)">
<path d="M133.556 148.917V196.917H141.556H149.556V148.917V100.917H141.556H133.556V148.917Z" fill="#364153"/>
<path d="M450.556 148.917V196.917H458.389H466.222V148.917V100.917H458.389H450.556V148.917Z" fill="#364153"/>
<path d="M404.055 125.283C392.322 126.85 382.922 133.583 377.722 144.083C374.422 150.717 373.189 157.783 373.889 165.917C374.589 174.383 376.789 180.017 381.722 186.183C387.789 193.717 396.922 197.917 407.222 197.917C413.155 197.917 419.555 196.25 424.089 193.55C429.022 190.617 433.522 184.983 435.922 178.783C436.922 176.183 438.055 171.65 437.789 171.35C437.689 171.283 436.889 172.25 435.955 173.517C432.922 177.583 429.522 180.383 425.122 182.417C420.889 184.383 419.022 184.717 412.889 184.717C407.822 184.717 407.155 184.617 404.689 183.817C398.089 181.65 392.522 176.117 390.422 169.65C389.255 166.083 388.855 163.817 388.622 159.383L388.389 155.583H412.689H436.989L436.755 152.683C435.655 138.25 428.755 129.217 416.455 126.083C412.855 125.183 407.455 124.817 404.055 125.283ZM411.555 132.283C417.889 133.317 421.855 138.717 422.289 146.917L422.389 149.083H406.155C397.255 149.083 389.822 148.95 389.689 148.817C389.255 148.383 390.155 145.65 391.789 142.25C395.622 134.283 402.555 130.817 411.555 132.283Z" fill="#364153"/>
<path d="M192.389 125.75C183.355 127.417 175.955 130.883 171.355 135.55C168.655 138.317 167.622 140.217 167.189 143.483C166.722 146.65 167.122 148.383 168.622 150.117C169.922 151.583 170.955 152.117 173.089 152.417C177.789 153.05 181.389 150.083 185.289 142.45C187.389 138.35 190.555 134.95 193.889 133.217C195.955 132.15 196.222 132.083 199.389 132.15C206.722 132.217 210.355 135.35 211.255 142.25C211.722 145.65 211.355 147.35 209.855 149.083C208.555 150.55 206.889 151.15 196.722 153.783C192.155 154.983 186.822 156.483 184.922 157.117C176.222 160.017 169.955 164.45 167.422 169.583C165.822 172.75 165.422 174.55 165.422 178.583C165.455 184.917 166.755 188.417 170.389 192.117C175.022 196.817 182.822 198.85 190.789 197.45C199.855 195.883 205.622 191.05 209.422 181.883C210.089 180.25 210.755 178.917 210.889 178.917C211.389 178.917 211.555 181.583 211.555 189.15V196.917H219.089H226.622L226.455 169.983C226.322 147.283 226.222 142.75 225.789 140.883C224.122 133.717 218.522 128.083 211.055 126.05C208.189 125.25 196.089 125.083 192.389 125.75ZM211.155 164.917C211.022 172.383 210.989 172.85 210.155 175.217C208.422 179.983 205.355 183.483 201.055 185.617C194.955 188.617 187.455 187.917 183.855 184.017C181.589 181.55 181.055 180.017 181.055 175.75C181.055 172.417 181.155 171.883 182.022 170.017C183.222 167.383 185.822 164.883 188.655 163.583C189.822 163.05 193.589 161.783 197.055 160.75C205.222 158.317 208.155 157.15 209.755 155.783L211.055 154.65L211.155 155.883C211.222 156.55 211.222 160.617 211.155 164.917Z" fill="#364153"/>
<path d="M353.589 125.75C346.389 127.083 341.289 132.283 338.389 141.25C337.889 142.817 337.389 144.217 337.289 144.417C336.823 145.217 336.623 142.517 336.589 134.783L336.556 126.517L326.756 126.617C321.356 126.683 316.856 126.85 316.723 126.95C316.623 127.083 317.123 127.983 317.856 128.95C319.723 131.45 320.556 133.85 320.923 137.75C321.056 139.583 321.189 153.65 321.223 168.983V196.917H328.856H336.523L336.623 174.65C336.756 154.317 336.789 152.25 337.356 150.583C339.023 145.517 342.356 141.217 346.089 139.383C347.789 138.55 348.423 138.417 350.923 138.417C353.589 138.417 353.889 138.483 355.589 139.55C359.056 141.75 360.823 142.583 362.723 142.95C366.789 143.683 369.989 141.85 371.056 138.117C371.956 135.05 370.956 132.017 368.256 129.45C364.656 126.117 359.156 124.717 353.589 125.75Z" fill="#364153"/>
<path d="M237.755 126.883L236.422 127.083L237.455 128.25C238.955 129.983 240.089 132.483 240.689 135.35C241.122 137.45 241.222 140.483 241.222 152.483C241.222 175.75 241.689 180.183 244.589 186.183C245.622 188.35 246.522 189.583 248.489 191.583C252.855 195.983 257.889 197.883 265.055 197.883C275.555 197.883 282.389 193.417 286.089 184.05C286.789 182.317 287.455 180.917 287.622 180.917C287.755 180.917 287.889 184.517 287.889 188.917V196.917H295.722H303.555V161.75V126.583L294.655 126.617C289.722 126.617 285.155 126.717 284.489 126.85L283.289 127.083L284.755 129.017C285.655 130.25 286.489 131.883 286.955 133.35C287.722 135.717 287.722 135.917 287.722 155.917C287.722 176.05 287.722 176.083 286.989 177.917C284.955 182.85 281.422 185.283 275.322 185.983C264.655 187.15 258.022 182.783 257.189 174.083C257.055 172.617 256.922 161.317 256.922 148.983L256.889 126.583L247.989 126.617C243.055 126.65 238.455 126.783 237.755 126.883Z" fill="#364153"/>
</g>
<defs>
<clipPath id="clip0_2209_20">
<rect width="341.25" height="97" fill="white" transform="translate(129.181 101)"/>
</clipPath>
</defs>
</svg>
